icons/svgs/star-solid.svg

<svg width="24" height="24" viewBox="0 0 24 24" fill="none" xmlns="http://www.w3.org/2000/svg">
<path d="M13.5939 2.70312L16.133 7.89844L21.7189 8.71875C22.1876 8.79688 22.5783 9.10938 22.7345 9.57812C22.8908 10.0078 22.7736 10.5156 22.422 10.8281L18.3595 14.8516L19.3361 20.5547C19.4142 21.0234 19.2189 21.4922 18.8283 21.7656C18.4376 22.0781 17.9298 22.0781 17.5001 21.8828L12.5001 19.1875L7.46108 21.8828C7.07045 22.0781 6.56264 22.0781 6.17202 21.7656C5.78139 21.4922 5.58608 21.0234 5.6642 20.5547L6.6017 14.8516L2.5392 10.8281C2.2267 10.5156 2.10952 10.0078 2.2267 9.57812C2.38295 9.10938 2.77358 8.79688 3.24233 8.71875L8.86733 7.89844L11.3673 2.70312C11.5626 2.27344 11.9923 2 12.5001 2C12.9689 2 13.3986 2.27344 13.5939 2.70312Z" fill="black"/>
</svg>

<svg xmlns="http://www.w3.org/2000/svg" width="24" height="24" fill="currentColor" class="icon-star-solid" viewBox="0 0 24 24">
  <mask id="a" width="21" height="21" x="2" y="2" maskUnits="userSpaceOnUse" style="mask-type:alpha">
    <path d="m13.594 2.703 2.539 5.195 5.586.82c.468.079.859.391 1.015.86.156.43.04.938-.312 1.25l-4.063 4.024.977 5.703c.078.468-.117.937-.508 1.21-.39.313-.898.313-1.328.118l-5-2.695-5.04 2.695c-.39.195-.898.195-1.288-.117a1.23 1.23 0 0 1-.508-1.211l.937-5.703-4.062-4.024c-.313-.312-.43-.82-.313-1.25a1.27 1.27 0 0 1 1.016-.86l5.625-.82 2.5-5.195c.195-.43.625-.703 1.133-.703.469 0 .898.273 1.094.703"/>
  </mask>
  <g mask="url(#a)">
    <path d="M0 0h24v24H0z"/>
  </g>
</svg>
